status/symbolic/weather-few-clouds-night-symbolic.svg

<?xml version="1.0" encoding="UTF-8" standalone="no"?>
<!-- Created with Inkscape (http://www.inkscape.org/) -->

<svg
   xmlns:osb="http://www.openswatchbook.org/uri/2009/osb"
   xmlns:dc="http://purl.org/dc/elements/1.1/"
   xmlns:cc="http://creativecommons.org/ns#"
   xmlns:rdf="http://www.w3.org/1999/02/22-rdf-syntax-ns#"
   xmlns:svg="http://www.w3.org/2000/svg"
   xmlns="http://www.w3.org/2000/svg"
   xmlns:sodipodi="http://sodipodi.sourceforge.net/DTD/sodipodi-0.dtd"
   xmlns:inkscape="http://www.inkscape.org/namespaces/inkscape"
   sodipodi:docname="weather-few-clouds-night-symbolic.svg"
   inkscape:export-filename="/home/sam/source-symbolic.png"
   inkscape:export-xdpi="270"
   inkscape:export-ydpi="270"
   height="16"
   id="svg7384"
   style="enable-background:new"
   version="1.1"
   inkscape:version="0.91 r13725"
   width="16">
  <sodipodi:namedview
     inkscape:bbox-nodes="true"
     inkscape:bbox-paths="true"
     bordercolor="#666666"
     borderlayer="false"
     borderopacity="1"
     inkscape:current-layer="svg7384"
     inkscape:cx="6.3979179"
     inkscape:cy="19.627185"
     gridtolerance="10"
     inkscape:guide-bbox="true"
     guidetolerance="10"
     id="namedview88"
     inkscape:object-nodes="true"
     inkscape:object-paths="true"
     objecttolerance="10"
     pagecolor="#f7f7f7"
     inkscape:pageopacity="1"
     inkscape:pageshadow="2"
     showborder="true"
     showgrid="false"
     showguides="true"
     inkscape:showpageshadow="false"
     inkscape:snap-bbox="true"
     inkscape:snap-bbox-edge-midpoints="false"
     inkscape:snap-bbox-midpoints="false"
     inkscape:snap-center="false"
     inkscape:snap-global="true"
     inkscape:snap-grids="true"
     inkscape:snap-intersection-paths="true"
     inkscape:snap-midpoints="true"
     inkscape:snap-nodes="true"
     inkscape:snap-object-midpoints="true"
     inkscape:snap-others="true"
     inkscape:snap-page="false"
     inkscape:snap-smooth-nodes="true"
     inkscape:snap-to-guides="true"
     inkscape:window-height="701"
     inkscape:window-maximized="0"
     inkscape:window-width="1362"
     inkscape:window-x="0"
     inkscape:window-y="28"
     inkscape:zoom="22.627417">
    <inkscape:grid
       color="#000000"
       dotted="false"
       empcolor="#0800ff"
       empopacity="0.4627451"
       empspacing="4"
       enabled="true"
       id="grid4866"
       opacity="0.16470588"
       originx="-183.99818px"
       originy="-548px"
       snapvisiblegridlinesonly="true"
       spacingx="0.25px"
       spacingy="0.25px"
       type="xygrid"
       visible="true" />
  </sodipodi:namedview>
  <metadata
     id="metadata90">
    <rdf:RDF>
      <cc:Work
         rdf:about="">
        <dc:format>image/svg+xml</dc:format>
        <dc:type
           rdf:resource="http://purl.org/dc/dcmitype/StillImage" />
        <dc:title>Paper Symbolic Icon Theme</dc:title>
      </cc:Work>
    </rdf:RDF>
  </metadata>
  <title
     id="title8473">Paper Symbolic Icon Theme</title>
  <defs
     id="defs7386">
    <linearGradient
       id="linearGradient5606"
       osb:paint="solid">
      <stop
         id="stop5608"
         offset="0"
         style="stop-color:#000000;stop-opacity:1;" />
    </linearGradient>
  </defs>
  <path
     inkscape:connector-curvature="0"
     d="M 7.3999134,2.0276843 C 5.1896604,2.1088181 3.1528976,3.4710246 2.3498471,5.676866 1.3387699,8.454115 2.6447869,11.535209 5.2998859,12.725286 5.2253249,12.455379 5.1823803,12.159877 5.1998846,11.875476 5.2220448,11.074656 5.6670667,10.365919 6.299899,9.900919 5.0463785,8.514678 4.5914046,6.5045124 5.2748855,4.6271014 5.6862189,3.4972348 6.454453,2.6208633 7.3999134,2.0276843 Z M 7.5499153,10.92569 c -0.3336523,0.137417 -0.6063759,0.38908 -0.7000091,0.749832 -0.2121388,0.659827 0.2684835,1.403317 0.9500124,1.499663 1.4368351,-0.05919 2.7996454,-0.64835 3.8000504,-1.674625 l 0,-0.124971 C 10.575227,11.675194 9.4545806,11.693461 8.3749261,11.300646 8.0853223,11.195261 7.8079267,11.074584 7.5499153,10.92573 Z"
     id="path6240"
     style="color:#bebebe;display:inline;overflow:visible;visibility:visible;fill:#bebebe;fill-opacity:1;fill-rule:nonzero;stroke:none;stroke-width:1;marker:none;enable-background:accumulate" />
  <ellipse
     cx="9.7410021"
     cy="4.5418491"
     id="path6317"
     style="color:#bebebe;display:inline;overflow:visible;visibility:visible;opacity:0;fill:#8c5f5f;fill-opacity:1;fill-rule:nonzero;stroke:none;stroke-width:1;marker:none;enable-background:accumulate"
     transform="matrix(0.9397187,0.34194848,-0.34209182,0.93966653,0,0)"
     rx="5.5999179"
     ry="5.5988998" />
  <path
     inkscape:connector-curvature="0"
     d="m 9.9999477,8.401256 c -1.049358,0 -1.9238815,0.68659 -2.2500298,1.624635 C 6.765241,10.15064 5.999895,10.982132 5.999895,12.000449 5.999895,13.104768 6.8953388,14 7.9999212,14 l 4.4000578,0 C 13.283647,14 14,13.283817 14,12.400359 14,11.5169 13.283647,10.800717 12.399979,10.800717 c 0,-1.325182 -1.074534,-2.399461 -2.4000313,-2.399461 z"
     id="path6258"
     style="display:inline;fill:#bebebe;fill-opacity:1;stroke:none;enable-background:new" />
</svg>

<svg xmlns="http://www.w3.org/2000/svg" viewBox="0 0 16 16">
  <path fill="#bebebe" d="M7.4 2.028c-2.21.081-4.247 1.443-5.05 3.649-1.011 2.777.295 5.858 2.95 7.048a2.612 2.612 0 0 1-.1-.85c.022-.8.467-1.509 1.1-1.974a5.193 5.193 0 0 1-1.025-5.274A5.122 5.122 0 0 1 7.4 2.028zm.15 8.898c-.334.137-.606.389-.7.75-.212.66.268 1.403.95 1.5a5.612 5.612 0 0 0 3.8-1.675v-.125c-1.025.299-2.145.317-3.225-.075a5.235 5.235 0 0 1-.825-.375zM10 8.401c-1.049 0-1.924.687-2.25 1.625A1.994 1.994 0 0 0 8 14h4.4a1.6 1.6 0 1 0 0-3.199A2.4 2.4 0 0 0 10 8.402z"/>
</svg>
